X:43
T:Cedar
T:L M
S:John Moore's Book 3
Z:Transcribed by Edmund Spriggs 05/2021
%%VWML: Moore1-4495-p34-0
F:https://www.vwml.org/record/Moore3/4495/p34
N:In the sixth bar of the second part, the lowG minim should be low A.
M:C|
L:1/8
V:1 clef=treble
V:2 clef=bass
K:A
[V:1]c2B A e3d|cB AG A3B|ce cA GB EA|G2F2E4|
[V:2]A,2E,2C,3D,|E,2E,2A,,3E,|A,2A,2E,2G,A,|B,2B,,2E,4|
[V:1]c2d e (fe) (dc)|Bc dBc4|z8|"_P"e2ed cB A2|
[V:2]A,2B, C (DC) (B,A,)|E,2E,2G,,4|[B,2E,,2][B,G,,] [A,A,,] [G,B,,2]F,[E,2E,,2]|z8|
[V:1]f2ed cA Fd|c2B2A4|]
[V:2]D2C B, A,2D,2|E,2E,2A,,4|]

